cmd/conneroh/_static/dist/svg/church.svg

<svg height="18" viewBox="0 0 18 18" width="18" xmlns="http://www.w3.org/2000/svg"><g fill="none" stroke="#fff" stroke-linecap="round" stroke-linejoin="round" stroke-width="2" transform="scale(.75)"><path d="m10 9h4m-2-2v5m2 10v-4c0-1.104167-.895833-2-2-2s-2 .895833-2 2v4"/><path d="m18 22v-16.380208c0-.380209-.213542-.723959-.552083-.895834l-4.552084-2.276041c-.5625-.28125-1.229166-.28125-1.791666 0l-4.552084 2.276041c-.338541.171875-.552083.515625-.552083.895834v16.380208"/><path d="m18 7 3.447917 1.723958c.338541.171875.552083.515625.552083.895834v10.380208c0 1.104167-.895833 2-2 2h-16c-1.104167 0-2-.895833-2-2v-10.380208c0-.380209.213542-.723959.552083-.895834l3.447917-1.723958"/></g></svg>

<svg xmlns="http://www.w3.org/2000/svg" width="24" height="24" fill="none" stroke="white" stroke-linecap="round" stroke-linejoin="round" stroke-width="2">
    <path d="M10 9h4m-2-2v5m2 10v-4a2 2 0 0 0-4 0v4"/>
    <path d="M18 22V5.618a1 1 0 0 0-.553-.894l-4.553-2.277a2 2 0 0 0-1.788 0L6.553 4.724A1 1 0 0 0 6 5.618V22"/>
    <path d="m18 7 3.447 1.724a1 1 0 0 1 .553.894V20a2 2 0 0 1-2 2H4a2 2 0 0 1-2-2V9.618a1 1 0 0 1 .553-.894L6 7"/>
</svg>
